X:1
T:Craigenroan
T:Craigenroan
T:Alexander Walker
C:Alexander Walker
L:1/8
M:4/4
K:Cmin
V:1 treble 
V:1
 E | C<CG>F G3 c | B>FG<B F<BD<B, | C<CG>F G3 c | (B>G)(F>D) C/C/C C>E | C<C G>F G3 c | %6
 B>FG<B D<B,B,>D | (C>E)(D>F) (E>G)(F>A) | G>c=B>d c<C C || g | e<cG<c (E>c)(G>c) | %11
 (d>B) (F>B) (D>B)(F>d) | (e>c)G>c (E>c)(G>c) | D>B (G/F/)(E/D/) E<(C C>)G | %14
 c>(de>)(c d>)(=Bc>)(=A | B>)(FG>)E D<BD<B, | (3CDE (3DEF (3EFG (3FGA | (3cGc (3dc=B c<C C || %18

